src/images/icon/icon_color_users.svg

<svg height="48" viewBox="0 0 48 48" width="48" xmlns="http://www.w3.org/2000/svg"><g fill="none" fill-rule="evenodd"><circle cx="24" cy="24" fill="#e3f3ff" r="24"/><g fill="#46b0f7" transform="translate(12 12)"><path d="m14.6423077 17.0677885-3.0295384-.8652906c-.499566-.1429406-.8770389-.5535181-.9775385-1.063269l-.1855384-.9345139c1.4770958-.6749863 2.4253078-2.1488009 2.4272307-3.7726669v-1.90225481c.0348889-2.28851603-1.7411462-4.19748534-4.02646146-4.32783737-1.12357008-.03446874-2.21314122.38785546-3.01991087 1.17053528-.80676964.78267981-1.26184853 1.85888297-1.26131983 2.98285951v2.07669739c.00138172 1.6243674.94967962 3.0988564 2.42723073 3.7740514l-.18553846.9331294c-.10096675.5092207-.47835433.9191709-.97753844 1.0618846l-3.02953842.8652905c-.59449947.170025-1.00418976.7135826-1.00384635 1.3318553v3.1095082c0 .3823095.30995692.6922325.6923079.6922325h12.4615383c.3823509 0 .6923076-.309923.6923076-.6922325v-3.1095082c-.0002744-.6177595-.4098401-1.160587-1.0038461-1.3304708z"/><path d="m15.4504616 1.80195592c2.2853153.13035203 4.0613504 2.03932134 4.0264615 4.32783737v1.90225481c-.0019229 1.62386596-.9501349 3.0976806-2.4272307 3.7726669l.1855384.9345139c.1004996.5097509.4779725.9203284.9775385 1.063269l3.0295384.8652906c.594006.1698838 1.0035717.7127113 1.0038461 1.3304708v3.1095082c0 .3823095-.3099567.6922325-.6923076.6922325h-4.1083343l.0006419-1.4017407-.0070907-.2118825c-.0888065-1.332611-1.0039041-2.4780065-2.3018053-2.8492022l-2.2612578-.6467746.1018493-.098601c1.0681261-1.0914672 1.6971983-2.5748075 1.6990726-4.1576194l.0000012-1.90438631c.0321128-2.09749883-1.0240254-3.97845807-2.6598103-5.08865304.123545-.16514321.2623219-.32204527.413438-.46864905.8067696-.78267982 1.8963408-1.20500402 3.0199108-1.17053528z"/></g></g></svg>

<?xml version="1.0" encoding="UTF-8"?>
<svg width="48px" height="48px" viewBox="0 0 48 48" version="1.1" xmlns="http://www.w3.org/2000/svg" xmlns:xlink="http://www.w3.org/1999/xlink">
    <title>icon_color_users</title>
    <g id="Dashboard" stroke="none" stroke-width="1" fill="none" fill-rule="evenodd">
        <g id="01-概览" transform="translate(-470.000000, -370.000000)">
            <g id="数据" transform="translate(244.000000, 264.000000)">
                <g id="编组-3" transform="translate(20.000000, 72.000000)">
                    <g id="编组-5" transform="translate(206.000000, 34.000000)">
                        <circle id="icon_color_users" fill="#E3F3FF" cx="24" cy="24" r="24"></circle>
                        <g id="编组-15" transform="translate(12.000000, 12.000000)" fill="#46B0F7">
                            <path d="M14.6423077,17.0677885 L11.6127693,16.2024979 C11.1132033,16.0595573 10.7357304,15.6489798 10.6352308,15.1392289 L10.4496924,14.204715 C11.9267882,13.5297287 12.8750002,12.0559141 12.8769231,10.4320481 L12.8769231,8.52979329 C12.911812,6.24127726 11.1357769,4.33230795 8.85046164,4.20195592 C7.72689156,4.16748718 6.63732042,4.58981138 5.83055077,5.3724912 C5.02378113,6.15517101 4.56870224,7.23137417 4.56923094,8.35535071 L4.56923094,10.4320481 C4.57061266,12.0564155 5.51891056,13.5309045 6.99646167,14.2060995 L6.81092321,15.1392289 C6.70995646,15.6484496 6.33256888,16.0583998 5.83338477,16.2011135 L2.80384635,17.066404 C2.20934688,17.236429 1.79965659,17.7799866 1.8,18.3982593 L1.8,21.5077675 C1.8,21.890077 2.10995692,22.2 2.4923079,22.2 L14.9538462,22.2 C15.3361971,22.2 15.6461538,21.890077 15.6461538,21.5077675 L15.6461538,18.3982593 C15.6458794,17.7804998 15.2363137,17.2376723 14.6423077,17.0677885 Z" id="Path"></path>
                            <path d="M15.4504616,1.80195592 C17.7357769,1.93230795 19.511812,3.84127726 19.4769231,6.12979329 L19.4769231,6.12979329 L19.4769231,8.0320481 C19.4750002,9.65591406 18.5267882,11.1297287 17.0496924,11.804715 L17.0496924,11.804715 L17.2352308,12.7392289 C17.3357304,13.2489798 17.7132033,13.6595573 18.2127693,13.8024979 L18.2127693,13.8024979 L21.2423077,14.6677885 C21.8363137,14.8376723 22.2458794,15.3804998 22.2461538,15.9982593 L22.2461538,15.9982593 L22.2461538,19.1077675 C22.2461538,19.490077 21.9361971,19.8 21.5538462,19.8 L21.5538462,19.8 L17.4455119,19.8 L17.4461538,18.3982593 L17.4390631,18.1863768 C17.3502566,16.8537658 16.435159,15.7083703 15.1372578,15.3371746 L12.876,14.6904 L12.9778493,14.591799 C14.0459754,13.5003318 14.6750476,12.0169915 14.6769219,10.4341796 L14.6769231,8.52979329 C14.7090359,6.43229446 13.6528977,4.55133522 12.0171128,3.44114025 C12.1406578,3.27599704 12.2794347,3.11909498 12.4305508,2.9724912 C13.2373204,2.18981138 14.3268916,1.76748718 15.4504616,1.80195592 Z" id="形状结合"></path>
                        </g>
                    </g>
                </g>
            </g>
        </g>
    </g>
</svg>
